public/avatar/body/124.svg

<svg xmlns:xlink="http://www.w3.org/1999/xlink" height="82" width="84.85" xmlns="http://www.w3.org/2000/svg"><g transform="translate(37.4 42.25)"><use height="38" transform="translate(-11.95 -17.45)" width="32.05" xlink:href="#a"/><use height="38.95" transform="translate(-12.45 -17.95)" width="33.05" xlink:href="#b"/><use height="19.25" transform="translate(-12.35 3.75)" width="27.95" xlink:href="#c"/><use height="24.7" transform="translate(5.5 -2.05)" width="20.15" xlink:href="#d"/><use height="24.7" transform="matrix(-1 0 0 1 3.2 -1.95)" width="20.15" xlink:href="#d"/></g><defs><use height="38" width="32.05" xlink:href="#e" id="a"/><use height="38.95" width="33.05" xlink:href="#f" id="b"/><use height="24.7" width="20.15" xlink:href="#g" id="d"/><path d="M27.35 7.4q2.15 4.15 3.55 8.75 1.45 4.7 1.15 9.5-.35 4.95-4.2 8.1-3.8 3.2-8.75 4.05l-2.6.2q-3.6 0-7.05-1.15-4.65-1.6-7.1-5.5Q-.2 27.4.05 23q.2-4.4 2-9.3Q3.85 8.75 7 5.05 10.1 1.3 14.7.1l1.8-.1q1.9.05 3.7.8 4.75 2.05 7.15 6.6" fill="#c47d47" fill-rule="evenodd" transform="translate(-.05)" id="e"/><path d="M27.35 7.4Q24.95 2.85 20.2.8 17.55-.3 14.7.1 10.1 1.3 7 5.05q-3.15 3.7-4.95 8.65-1.8 4.9-2 9.3-.25 4.4 2.3 8.35 2.45 3.9 7.1 5.5 4.65 1.55 9.65.95 4.95-.85 8.75-4.05 3.85-3.15 4.2-8.1.3-4.8-1.15-9.5-1.4-4.6-3.55-8.75Z" fill="none" stroke="#240501" stroke-linecap="round" stroke-linejoin="round" transform="translate(.45 .5)" id="f"/><g id="c" fill-rule="evenodd"><path d="m2.25 10.5-2.5-2.8-4.55-3.95L-.9 5.6q2.15 1.15 4.1 2.65l1.5 1.1 7.8-5.1-2.55 5.1-5 3.15-2.7-2" fill="#979585" transform="translate(12.35 -3.75)"/><path d="m15.6 5.5-3.3 13.35 1.25.85q-.45.8-8.85.8-3.4 0-6.65-1.25L-4.55 18V4.3l5 3.65q1.9 1.75 4.25 3L9.75 7l4.05-2.95 1.8 1.45" fill="#fffeee" transform="translate(12.35 -3.75)"/><path d="M9 13.35q-.05 1.15-.65 1.9l-8.3.2q-.5-.7 0-2.1 1-2 .75-2.75L-.25 8.7 4 8.5l4.95.5-1 2.05q-.05.5.5 1.1.6.65.55 1.2" fill="#979585" transform="translate(12.35 -3.75)"/><path d="m7.7 12.25.3 1.1v1.1l-1.05.5-4.6.4-1.15-.5q-.45-.75-.35-1l.15-1.5.5-1 2.35-.5 3.1.15.75 1.25" fill="#fffeee" transform="translate(12.35 -3.75)"/><path d="M4.85 20.7H4.5l2.7-1.85 7.9-.25q-.75 3.35-4.25 3.35l-4.3-.6-1.7-.65m-.85 0q-2.5 1.25-6 1.25-2.2 0-3.45-1.65l-.8-1.7 7.95.25q1.15.4 2.65 1.85H4" transform="translate(12.35 -3.75)"/><path d="m.35 20.2-.75-.95-.6-1.75 5.45-.3 4.75.15h.45l-1.15 2.9-4.2.5-3.95-.55" transform="translate(12.35 -3.75)"/><path d="m7.6 15.35 5.5.35-.3 3-5.75-.35.55-3m-6.75 0 .6 3-5.9.4-.3-3 5.6-.4" transform="translate(12.35 -3.75)"/><path d="m-11.15 12.75 1.05.7.35 2.4 1 2.65 5.15 2.05 1.7.4.8-2.15q3.95 4.15.15 4.2-1.6.05-3.15-.9l-2-1.3-4.3-.8q-1.95-.35-1.95-1.95 0-.85.75-3.35l.45-1.95m18.2 5.6.05.95q-.5 1.15-2.9 1.15-.8 0-1.95-.7l-1.1-.9.25-.7-.65-2.6q.1-.7.55-1.35 1-1.4 3.05-1.4 3.3 0 3.6 3.1l-.9 2.45" transform="translate(12.35 -3.75)"/><path d="M7.05 16.15q0 2.75-2.75 2.75t-2.75-2.75q0-2.75 2.75-2.75t2.75 2.75" fill="#c2934e" transform="translate(12.35 -3.75)"/><path d="m2.3 17.45 3.9.15.25 1.35q-1.25 1-2.2 1l-2.2-1.1.25-1.4" fill="#c2934e" transform="translate(12.35 -3.75)"/><path d="M6.35 16.05q0 .8-.8.8t-.8-.8q0-.8.8-.8t.8.8m-2.55 0q0 .8-.8.8t-.8-.8q0-.8.8-.8t.8.8m.55.8.35 1.1h-.8l.45-1.1" transform="translate(12.35 -3.75)"/><path d="m7.95 15.9 1.4.1-.5 1.95-1.65-.1.5-1.05.25-.9m-6.9 1.75.15.2-1.45.05-.3-1.7 1.2-.2.4 1.65" fill="#613425" transform="translate(12.35 -3.75)"/><path d="m1.45 18.45-1.5.25-.1-.4 1.6-.15v.3m5.4-.25 1.45.1.15.5-1.65-.35.05-.25m1.1-2.3 1.4.1-.15.95-1.65.3.4-1.35m-7 1.3-1.35-.25-.3-.9L.7 16l.25 1.2" fill="#c2934e" transform="translate(12.35 -3.75)"/><path d="M4.25 5.75q5.35 0 5.35 1.6 0 1.15-1 2.3-1.45 1.6-4.25 1.6-3.05 0-4.4-1.7Q-1.25 8.05-.5 7l1.15-.6q1.55-.65 3.6-.65" fill="#979585" transform="translate(12.35 -3.75)"/><path d="M8.85 7.6q.2 1.05-1.05 2-3.1 2.45-3.7-.55Q3.05 11.7.8 9.8q-1-.85-.7-2.2.2-.85 4.4-.85t4.35.85" fill="#fffeee" transform="translate(12.35 -3.75)"/><path d="m9 8.35-.65 1.1-1.6-1.35L9 8.35M.75 10.1l-1-1.4 2.5-.7-1.5 2.1m7 1.4.05 1.05-1.7-.95 1.65-.1m-6.8.35H2.5l-1.65 1.1.1-1.1" fill="#979585" transform="translate(12.35 -3.75)"/><path d="M8.95 9.7q-.7.8-1.9 1l1.15-.75.1-.85-.35-.35.9-.05.6-.85-.5 1.85" fill="#605f56" transform="translate(12.35 -3.75)"/><path d="m8.6 9.85-.1 2.1.75 1.15q.2.65-.4 2.35l-.5-.2.4-1.8-.9-1.35-.75-.5.65-.1-.05-1.05.9-.6" fill="#605f56" transform="translate(12.35 -3.75)"/><path d="M1.55 16.15q.1-1.35.9-2.05.7-.55 1.7-.65l.85.05-2.4 1.15-1.05 1.5m2.8.4-.4 1-.45-.2.8-1.2.05.4M2.4 17.9l1.5.55q-.35.8-.7.8l-.9-.6.1-.75" fill="#ffc567" transform="translate(12.35 -3.75)"/><path d="m3.75 6.45-4 .35-1.45-1.55 2.3 1.1 3.5-.55 3.1.2 1.6.45q-3.05-.15-5.05 0" fill="#605f56" transform="translate(12.35 -3.75)"/><path d="M10.7 5.1 9.35 6.8h-.3l-2.1-.6 1.85.25 1.9-1.35" fill="#605f56" transform="translate(12.35 -3.75)"/></g><g id="g" fill-rule="evenodd"><path d="M14.1 3.05 14 4.5l-.2.6-.05.15-3.4 5.8-.4.4-.45.05-1.45-4.35-1-2.65L5.8 8.9q-.35 2.2-.45 4.45-.1 3.45-.85 6.9l-.4 1.1-1.2 1.5-2.9.25q4.6-2.45 4.5-8.5-.05-2.55.15-4.85.65-8.05 8.6-9.3l.1.4-5.85 3 2.25 6.35 1.35-1.8q1.4-2.05 2.2-4.6l.9-2.55v.15l-.1 1.45v.2" fill="#54100a" transform="translate(0 -.2)"/><path d="M14.2 1.25 13.95.5l-.6.35-.1-.4L14.3.2l.35.35-.1.6-.35.25v-.15m.2 17.4-.8-3.1.75-.55q1.2 3.2 1 6.35l-.95.4q-1.65.5-3.1 1.3-4.35 2.4-8.85 1.65l.45-1.85 1.2-1.5-.8 2.6q2.35 1.5 5.4-.5 1.85-1.25 4.3-1.6l1.9-1.1-.5-2.1" transform="translate(0 -.2)"/><path d="m13.35.85.6-.35.25.75-.9 2.55q-.8 2.55-2.2 4.6l-1.35 1.8L7.5 3.85l5.85-3m-1.95 2.7q-1.8 0-3.3.95l.65 1.85q0-.6.15-1.1.15-.55.45-1 .9.25 1.75-.4l.85-.75-.55.45m2.7 1.7h-.35l.05-.15.3.15m-3.75 8.85q1 2.25 3.1 3.8l.95.75.5 2.1-1.9 1.1q-2.45.35-4.3 1.6-3.05 2-5.4.5l.8-2.6.4-1.1.05.05-.25.75q4.85 1.75 5.65-3.4l.4-3.55" fill="#c84823" transform="translate(0 -.2)"/><path d="M13.75 5.25h.35l2.7 2.3-.7 1.25q-1.6 3.25-2.5 6.75l.8 3.1-.95-.75q-2.1-1.55-3.1-3.8v-3.05l3.4-5.8" fill="#a23a1c" transform="translate(0 -.2)"/><path d="M8.05 7.15 5.8 8.9l1.25-4.4 1 2.65" fill="#8e3319" transform="translate(0 -.2)"/><path d="M10.35 11.05v3.05l-.4 3.55q-.8 5.15-5.65 3.4l.25-.75q4.4 1.55 4.85-3.05.3-2.9.1-5.75l.45-.05.4-.4" fill="#872116" transform="translate(0 -.2)"/><path d="m5.8 8.9 2.25-1.75L9.5 11.5q.2 2.85-.1 5.75-.45 4.6-4.85 3.05l-.05-.05q.75-3.45.85-6.9.1-2.25.45-4.45m2.85 2q-.35-.5-.85-.5t-.8.5q-.35.45-.35 1.15t.35 1.2q.3.45.8.45.45-.2.85-.45l.3-1.2-.3-1.15m-2.8 6.8.4 1.4h1.1l.45-.75q.7-1-.25-2.05H6.6l-.75 1.4" fill="#f9f0ec" transform="translate(0 -.2)"/><path d="M19.75 4.95q.4-.65-.25-1.1L14.7.95l-.6 1.9.05.05-.05.15v-.2l.1-1.45.35-.25.1-.6q8.25 1.65 4.1 7.7l-.3-.1-1.65-.6-2.7-2.3-.3-.15.2-.6.7.6q3.45 3.95 5.05-.15" fill="#2b0d05" transform="translate(0 -.2)"/><path d="M14.15 2.9 18 5.8l.45.2 1.3-1.05q-1.6 4.1-5.05.15l-.7-.6.1-1.45.05-.15" fill="#a96d23" transform="translate(0 -.2)"/><path d="M19.75 4.95 18.45 6 18 5.8l-3.85-2.9-.05-.05.6-1.9 4.8 2.9q.65.45.25 1.1" fill="#ffc83c" transform="translate(0 -.2)"/><path d="m8.65 10.9.3 1.15-.3 1.2q-.4.25-.85.45-.5 0-.8-.45-.35-.5-.35-1.2T7 10.9q.3-.5.8-.5t.85.5m-2.8 6.8.75-1.4h.95q.95 1.05.25 2.05l-.45.75h-1.1l-.4-1.4" fill="#c2a89a" transform="translate(0 -.2)"/><path d="m11.4 3.55.55-.45-.85.75q-.85.65-1.75.4-.3.45-.45 1-.15.5-.15 1.1L8.1 4.5q1.5-.95 3.3-.95" fill="#ffa88a" transform="translate(0 -.2)"/></g></defs></svg>

<?xml version="1.0" encoding="UTF-8" standalone="no"?>
<svg xmlns:xlink="http://www.w3.org/1999/xlink" height="82.0px" width="84.85px" xmlns="http://www.w3.org/2000/svg">
  <g transform="matrix(1.0, 0.0, 0.0, 1.0, 37.4, 42.25)">
    <use height="38.0" transform="matrix(1.0, 0.0, 0.0, 1.0, -11.95, -17.45)" width="32.05" xlink:href="#sprite0"/>
    <use height="38.95" transform="matrix(1.0, 0.0, 0.0, 1.0, -12.45, -17.95)" width="33.05" xlink:href="#sprite1"/>
    <use height="19.25" transform="matrix(1.0, 0.0, 0.0, 1.0, -12.35, 3.75)" width="27.95" xlink:href="#shape2"/>
    <use height="24.7" transform="matrix(1.0, 0.0, 0.0, 1.0, 5.5, -2.05)" width="20.15" xlink:href="#sprite2"/>
    <use height="24.7" transform="matrix(-1.0, 0.0, 0.0, 1.0, 3.2, -1.95)" width="20.15" xlink:href="#sprite2"/>
  </g>
  <defs>
    <g id="sprite0" transform="matrix(1.0, 0.0, 0.0, 1.0, -0.05, 0.0)">
      <use height="38.0" transform="matrix(1.0, 0.0, 0.0, 1.0, 0.05, 0.0)" width="32.05" xlink:href="#shape0"/>
    </g>
    <g id="shape0" transform="matrix(1.0, 0.0, 0.0, 1.0, -0.05, 0.0)">
      <path d="M27.35 7.4 Q29.5 11.55 30.9 16.15 32.35 20.85 32.05 25.65 31.7 30.6 27.85 33.75 24.05 36.95 19.1 37.8 L16.5 38.0 Q12.9 38.0 9.45 36.85 4.8 35.25 2.35 31.35 -0.2 27.4 0.05 23.0 0.25 18.6 2.05 13.7 3.85 8.75 7.0 5.05 10.1 1.3 14.7 0.1 L16.5 0.0 Q18.4 0.05 20.2 0.8 24.95 2.85 27.35 7.4" fill="#c47d47" fill-rule="evenodd" stroke="none"/>
    </g>
    <g id="sprite1" transform="matrix(1.0, 0.0, 0.0, 1.0, 0.45, 0.5)">
      <use height="38.95" transform="matrix(1.0, 0.0, 0.0, 1.0, -0.45, -0.5)" width="33.05" xlink:href="#shape1"/>
    </g>
    <g id="shape1" transform="matrix(1.0, 0.0, 0.0, 1.0, 0.45, 0.5)">
      <path d="M27.35 7.4 Q24.95 2.85 20.2 0.8 17.55 -0.3 14.7 0.1 10.1 1.3 7.0 5.05 3.85 8.75 2.05 13.7 0.25 18.6 0.05 23.0 -0.2 27.4 2.35 31.35 4.8 35.25 9.45 36.85 14.1 38.4 19.1 37.8 24.05 36.95 27.85 33.75 31.7 30.6 32.05 25.65 32.35 20.85 30.9 16.15 29.5 11.55 27.35 7.4 Z" fill="none" stroke="#240501" stroke-linecap="round" stroke-linejoin="round" stroke-width="1.0"/>
    </g>
    <g id="shape2" transform="matrix(1.0, 0.0, 0.0, 1.0, 12.35, -3.75)">
      <path d="M2.25 10.5 L-0.25 7.7 -4.8 3.75 -0.9 5.6 Q1.25 6.75 3.2 8.25 L4.7 9.35 12.5 4.25 9.95 9.35 4.95 12.5 2.25 10.5" fill="#979585" fill-rule="evenodd" stroke="none"/>
      <path d="M15.6 5.5 L12.3 18.85 13.55 19.7 Q13.1 20.5 4.7 20.5 1.3 20.5 -1.95 19.25 L-4.55 18.0 -4.55 4.3 0.45 7.95 Q2.35 9.7 4.7 10.95 L9.75 7.0 13.8 4.05 15.6 5.5" fill="#fffeee" fill-rule="evenodd" stroke="none"/>
      <path d="M9.0 13.35 Q8.95 14.5 8.35 15.25 L0.05 15.45 Q-0.45 14.75 0.05 13.35 1.05 11.35 0.8 10.6 L-0.25 8.7 4.0 8.5 8.95 9.0 7.95 11.05 Q7.9 11.55 8.45 12.15 9.05 12.8 9.0 13.35" fill="#979585" fill-rule="evenodd" stroke="none"/>
      <path d="M7.7 12.25 L8.0 13.35 8.0 14.45 6.95 14.95 2.35 15.35 1.2 14.85 Q0.75 14.1 0.85 13.85 L1.0 12.35 1.5 11.35 3.85 10.85 6.95 11.0 7.7 12.25" fill="#fffeee" fill-rule="evenodd" stroke="none"/>
      <path d="M4.85 20.7 L4.5 20.7 7.2 18.85 15.1 18.6 Q14.35 21.95 10.85 21.95 L6.55 21.35 4.85 20.7" fill="#000000" fill-rule="evenodd" stroke="none"/>
      <path d="M4.0 20.7 Q1.5 21.95 -2.0 21.95 -4.2 21.95 -5.45 20.3 L-6.25 18.6 1.7 18.85 Q2.85 19.25 4.35 20.7 L4.0 20.7" fill="#000000" fill-rule="evenodd" stroke="none"/>
      <path d="M0.35 20.2 L-0.4 19.25 -1.0 17.5 4.45 17.2 9.2 17.35 9.65 17.35 8.5 20.25 4.3 20.75 0.35 20.2" fill="#000000" fill-rule="evenodd" stroke="none"/>
      <path d="M7.6 15.35 L13.1 15.7 12.8 18.7 7.05 18.35 7.6 15.35" fill="#000000" fill-rule="evenodd" stroke="none"/>
      <path d="M0.85 15.35 L1.45 18.35 -4.45 18.75 -4.75 15.75 0.85 15.35" fill="#000000" fill-rule="evenodd" stroke="none"/>
      <path d="M-11.15 12.75 L-10.1 13.45 -9.75 15.85 -8.75 18.5 -3.6 20.55 -1.9 20.95 -1.1 18.8 Q2.85 22.95 -0.95 23.0 -2.55 23.05 -4.1 22.1 L-6.1 20.8 -10.4 20.0 Q-12.35 19.65 -12.35 18.05 -12.35 17.2 -11.6 14.7 L-11.15 12.75" fill="#000000" fill-rule="evenodd" stroke="none"/>
      <path d="M7.05 18.35 L7.1 19.3 Q6.6 20.45 4.2 20.45 3.4 20.45 2.25 19.75 L1.15 18.85 1.4 18.15 0.75 15.55 Q0.85 14.85 1.3 14.2 2.3 12.8 4.35 12.8 7.65 12.8 7.95 15.9 L7.05 18.35" fill="#000000" fill-rule="evenodd" stroke="none"/>
      <path d="M7.05 16.15 Q7.05 18.9 4.3 18.9 1.55 18.9 1.55 16.15 1.55 13.4 4.3 13.4 7.05 13.4 7.05 16.15" fill="#c2934e" fill-rule="evenodd" stroke="none"/>
      <path d="M2.3 17.45 L6.2 17.6 6.45 18.95 Q5.2 19.95 4.25 19.95 L2.05 18.85 2.3 17.45" fill="#c2934e" fill-rule="evenodd" stroke="none"/>
      <path d="M6.35 16.05 Q6.35 16.85 5.55 16.85 4.75 16.85 4.75 16.05 4.75 15.25 5.55 15.25 6.35 15.25 6.35 16.05" fill="#000000" fill-rule="evenodd" stroke="none"/>
      <path d="M3.8 16.05 Q3.8 16.85 3.0 16.85 2.2 16.85 2.2 16.05 2.2 15.25 3.0 15.25 3.8 15.25 3.8 16.05" fill="#000000" fill-rule="evenodd" stroke="none"/>
      <path d="M4.35 16.85 L4.7 17.95 3.9 17.95 4.35 16.85" fill="#000000" fill-rule="evenodd" stroke="none"/>
      <path d="M7.95 15.9 L9.35 16.0 8.85 17.95 7.2 17.85 7.7 16.8 7.95 15.9" fill="#613425" fill-rule="evenodd" stroke="none"/>
      <path d="M1.05 17.65 L1.2 17.85 -0.25 17.9 -0.55 16.2 0.65 16.0 1.05 17.65" fill="#613425" fill-rule="evenodd" stroke="none"/>
      <path d="M1.45 18.45 L-0.05 18.7 -0.15 18.3 1.45 18.15 1.45 18.45" fill="#c2934e" fill-rule="evenodd" stroke="none"/>
      <path d="M6.85 18.2 L8.3 18.3 8.45 18.8 6.8 18.45 6.85 18.2" fill="#c2934e" fill-rule="evenodd" stroke="none"/>
      <path d="M7.95 15.9 L9.35 16.0 9.2 16.95 7.55 17.25 7.95 15.9" fill="#c2934e" fill-rule="evenodd" stroke="none"/>
      <path d="M0.95 17.2 L-0.4 16.95 -0.7 16.05 0.7 16.0 0.95 17.2" fill="#c2934e" fill-rule="evenodd" stroke="none"/>
      <path d="M4.25 5.75 Q9.6 5.75 9.6 7.35 9.6 8.5 8.6 9.65 7.15 11.25 4.35 11.25 1.3 11.25 -0.05 9.55 -1.25 8.05 -0.5 7.0 L0.65 6.4 Q2.2 5.75 4.25 5.75" fill="#979585" fill-rule="evenodd" stroke="none"/>
      <path d="M8.85 7.6 Q9.05 8.65 7.8 9.6 4.7 12.05 4.1 9.05 3.05 11.7 0.8 9.8 -0.2 8.95 0.1 7.6 0.3 6.75 4.5 6.75 8.7 6.75 8.85 7.6" fill="#fffeee" fill-rule="evenodd" stroke="none"/>
      <path d="M9.0 8.35 L8.35 9.45 6.75 8.1 9.0 8.35" fill="#979585" fill-rule="evenodd" stroke="none"/>
      <path d="M0.75 10.1 L-0.25 8.7 2.25 8.0 0.75 10.1" fill="#979585" fill-rule="evenodd" stroke="none"/>
      <path d="M7.75 11.5 L7.8 12.55 6.1 11.6 7.75 11.5" fill="#979585" fill-rule="evenodd" stroke="none"/>
      <path d="M0.95 11.85 L2.5 11.85 0.85 12.95 0.95 11.85" fill="#979585" fill-rule="evenodd" stroke="none"/>
      <path d="M8.95 9.7 Q8.25 10.5 7.05 10.7 L8.2 9.95 8.3 9.1 7.95 8.75 8.85 8.7 9.45 7.85 8.95 9.7" fill="#605f56" fill-rule="evenodd" stroke="none"/>
      <path d="M8.6 9.85 L8.5 11.95 9.25 13.1 Q9.45 13.75 8.85 15.45 L8.35 15.25 8.75 13.45 7.85 12.1 7.1 11.6 7.75 11.5 7.7 10.45 8.6 9.85" fill="#605f56" fill-rule="evenodd" stroke="none"/>
      <path d="M1.55 16.15 Q1.65 14.8 2.45 14.1 3.15 13.55 4.15 13.45 L5.0 13.5 2.6 14.65 1.55 16.15" fill="#ffc567" fill-rule="evenodd" stroke="none"/>
      <path d="M4.35 16.55 L3.95 17.55 3.5 17.35 4.3 16.15 4.35 16.55" fill="#ffc567" fill-rule="evenodd" stroke="none"/>
      <path d="M2.4 17.9 L3.9 18.45 Q3.55 19.25 3.2 19.25 L2.3 18.65 2.4 17.9" fill="#ffc567" fill-rule="evenodd" stroke="none"/>
      <path d="M3.75 6.45 L-0.25 6.8 -1.7 5.25 0.6 6.35 4.1 5.8 7.2 6.0 8.8 6.45 Q5.75 6.3 3.75 6.45" fill="#605f56" fill-rule="evenodd" stroke="none"/>
      <path d="M10.7 5.1 L9.35 6.8 9.05 6.8 6.95 6.2 8.8 6.45 10.7 5.1" fill="#605f56" fill-rule="evenodd" stroke="none"/>
    </g>
    <g id="sprite2" transform="matrix(1.0, 0.0, 0.0, 1.0, 0.0, -0.2)">
      <use height="24.7" transform="matrix(1.0, 0.0, 0.0, 1.0, 0.0, 0.2)" width="20.15" xlink:href="#shape3"/>
    </g>
    <g id="shape3" transform="matrix(1.0, 0.0, 0.0, 1.0, 0.0, -0.2)">
      <path d="M14.1 3.05 L14.0 4.5 13.8 5.1 13.75 5.25 10.35 11.05 9.95 11.45 9.5 11.5 8.05 7.15 7.05 4.5 5.8 8.9 Q5.45 11.1 5.35 13.35 5.25 16.8 4.5 20.25 L4.1 21.35 2.9 22.85 0.0 23.1 Q4.6 20.65 4.5 14.6 4.45 12.05 4.65 9.75 5.3 1.7 13.25 0.45 L13.35 0.85 7.5 3.85 9.75 10.2 11.1 8.4 Q12.5 6.35 13.3 3.8 L14.2 1.25 14.2 1.4 14.1 2.85 14.1 3.05" fill="#54100a" fill-rule="evenodd" stroke="none"/>
      <path d="M14.2 1.25 L13.95 0.5 13.35 0.85 13.25 0.45 14.3 0.2 14.65 0.55 14.55 1.15 14.2 1.4 14.2 1.25 M14.4 18.65 L13.6 15.55 14.35 15.0 Q15.55 18.2 15.35 21.35 L14.4 21.75 Q12.75 22.25 11.3 23.05 6.95 25.45 2.45 24.7 L2.9 22.85 4.1 21.35 3.3 23.95 Q5.65 25.45 8.7 23.45 10.55 22.2 13.0 21.85 L14.9 20.75 14.4 18.65" fill="#000000" fill-rule="evenodd" stroke="none"/>
      <path d="M13.35 0.85 L13.95 0.5 14.2 1.25 13.3 3.8 Q12.5 6.35 11.1 8.4 L9.75 10.2 7.5 3.85 13.35 0.85 M11.4 3.55 Q9.6 3.55 8.1 4.5 L8.75 6.35 Q8.75 5.75 8.9 5.25 9.05 4.7 9.35 4.25 10.25 4.5 11.1 3.85 L11.95 3.1 11.4 3.55 M14.1 5.25 L13.75 5.25 13.8 5.1 14.1 5.25 M10.35 14.1 Q11.35 16.35 13.45 17.9 L14.4 18.65 14.9 20.75 13.0 21.85 Q10.55 22.2 8.7 23.45 5.65 25.45 3.3 23.95 L4.1 21.35 4.5 20.25 4.55 20.3 4.3 21.05 Q9.15 22.8 9.95 17.65 L10.35 14.1" fill="#c84823" fill-rule="evenodd" stroke="none"/>
      <path d="M13.75 5.25 L14.1 5.25 16.8 7.55 16.1 8.8 Q14.5 12.05 13.6 15.55 L14.4 18.65 13.45 17.9 Q11.35 16.35 10.35 14.1 L10.35 11.05 13.75 5.25" fill="#a23a1c" fill-rule="evenodd" stroke="none"/>
      <path d="M8.05 7.15 L5.8 8.9 7.05 4.5 8.05 7.15" fill="#8e3319" fill-rule="evenodd" stroke="none"/>
      <path d="M10.35 11.05 L10.35 14.1 9.95 17.65 Q9.15 22.8 4.3 21.05 L4.55 20.3 Q8.95 21.85 9.4 17.25 9.7 14.35 9.5 11.5 L9.95 11.45 10.35 11.05" fill="#872116" fill-rule="evenodd" stroke="none"/>
      <path d="M5.8 8.9 L8.05 7.15 9.5 11.5 Q9.7 14.35 9.4 17.25 8.95 21.85 4.55 20.3 L4.5 20.25 Q5.25 16.8 5.35 13.35 5.45 11.1 5.8 8.9 M8.65 10.9 Q8.3 10.4 7.8 10.4 7.3 10.4 7.0 10.9 6.65 11.35 6.65 12.05 6.65 12.75 7.0 13.25 7.3 13.7 7.8 13.7 8.25 13.5 8.65 13.25 L8.95 12.05 8.65 10.9 M5.85 17.7 L6.25 19.1 7.35 19.1 7.8 18.35 Q8.5 17.35 7.55 16.3 L6.6 16.3 5.85 17.7" fill="#f9f0ec" fill-rule="evenodd" stroke="none"/>
      <path d="M19.75 4.95 Q20.15 4.3 19.5 3.85 L14.7 0.95 14.1 2.85 14.15 2.9 14.1 3.05 14.1 2.85 14.2 1.4 14.55 1.15 14.65 0.55 Q22.9 2.2 18.75 8.25 L18.45 8.15 16.8 7.55 14.1 5.25 13.8 5.1 14.0 4.5 14.7 5.1 Q18.15 9.05 19.75 4.95" fill="#2b0d05" fill-rule="evenodd" stroke="none"/>
      <path d="M14.15 2.9 L18.0 5.8 18.45 6.0 19.75 4.95 Q18.15 9.05 14.7 5.1 L14.0 4.5 14.1 3.05 14.15 2.9" fill="#a96d23" fill-rule="evenodd" stroke="none"/>
      <path d="M19.75 4.95 L18.45 6.0 18.0 5.8 14.15 2.9 14.1 2.85 14.7 0.95 19.5 3.85 Q20.15 4.3 19.75 4.95" fill="#ffc83c" fill-rule="evenodd" stroke="none"/>
      <path d="M8.65 10.9 L8.95 12.05 8.65 13.25 Q8.25 13.5 7.8 13.7 7.3 13.7 7.0 13.25 6.65 12.75 6.65 12.05 6.65 11.35 7.0 10.9 7.3 10.4 7.8 10.4 8.3 10.4 8.65 10.9 M5.85 17.7 L6.6 16.3 7.55 16.3 Q8.5 17.35 7.8 18.35 L7.35 19.1 6.25 19.1 5.85 17.7" fill="#c2a89a" fill-rule="evenodd" stroke="none"/>
      <path d="M11.4 3.55 L11.95 3.1 11.1 3.85 Q10.25 4.5 9.35 4.25 9.05 4.7 8.9 5.25 8.75 5.75 8.75 6.35 L8.1 4.5 Q9.6 3.55 11.4 3.55" fill="#ffa88a" fill-rule="evenodd" stroke="none"/>
    </g>
  </defs>
</svg>
